X:1
T:Sons Of Jubal, The
M:6/8
L:1/8
C:anon.
R:Double jig
O:Ozarks
K:Em
|:"Em"E2 E GEG| BGB e2 e/f/| "G"gfe "D"fed| "Em"edB "D"AFD| "Em"E2 E GEG
|
BGB e2 e/f/| "G"gfe "D"fed| "Em"e2e/e/ e3:|
|: "Em"E2E/E/ E2 de| "D"fed BAF| "Em"E2E/E/ E2 e| "G"dBA "D"FED| "Em"E2E
/E/ E2 e/f/|
"G"gfg "D"a2 g/a/| "Em"bag age| "D"dBA FED:|
